X:1
T:Maldwyn, 11.11.11.11
T:Maldwyn, 11.11.11.11
T:Welsh melody, circa 1600
T:Public Domain Courtesy of the Cyber Hymnal™
C:Welsh melody, circa 1600
Z:Public Domain
Z:Courtesy of the Cyber Hymnal™
%%score ( 1 2 ) ( 3 4 )
L:1/8
Q:1/4=112
M:3/4
K:Bb
V:1 treble 
V:2 treble 
V:3 bass 
V:4 bass 
V:1
 D2 | [DG]2 [DG]2 [DA]2 | [DB]2 [GB]2 [FA]2 | [EG]2 [EA]2 [D^F]2 | [DG]4 [DA]2 | %5
 [DB]2 [EB]2 [Ec]2 | [CA]2 [CF]2 [FB]2 | [GB]2 [Gc]2 [FA]2 | [FB]4 [FB]2 | [Fd]2 [Ge]2 [Fd]2 | %10
 [Fc]2 [Fc]2 [Dd]2 | [DB]2 [Ec]2 [DB]2 | [DA]4 D2 | [DG]2 [B,G]2 [DA]2 | [DB]2 [Gc]2 [Gd]2 | %15
 [Ac]2 [GB]2 [^FA]2 | [DG]4 |] %17
V:2
 D2 | x6 | x6 | x6 | x6 | x6 | x6 | x6 | x6 | x6 | x6 | x6 | x4 D2 | x6 | x6 | x6 | x4 |] %17
V:3
 [G,B,]2 | [G,,B,]2 [B,,G,]2 [D,^F,]2 | G,2 [G,D]2 [D,D]2 | [E,B,]2 [C,C]2 [D,A,]2 | %4
 [G,,B,]4 [D,^F,]2 | G,2 [E,G,]2 [C,G,]2 | F,2 [E,A,]2 [D,B,]2 | [E,B,]2 [C,E]2 [F,C]2 | %8
 [B,,D]4 [B,,D]2 | [B,,B,]2 [E,B,]2 [B,,B,]2 | [F,B,]2 [F,A,]2 [^F,A,]2 | G,2 [C,G,]2 [G,,G,]2 | %12
 [D,^F,]4 [D,F,]2 | [B,,G,]2 [E,G,]2 [D,^F,]2 | G,2 [E,G,]2 [B,,D]2 | [C,E]2 [D,D]2 (DC) | %16
 [G,,B,]4 |] %17
V:4
 x2 | x6 | G,2 x4 | x6 | x6 | G,2 x4 | F,2 x4 | x6 | x6 | x6 | x6 | G,2 x4 | x6 | x6 | G,2 x4 | %15
 x4 D,2 | x4 |] %17

